X: 1
T: Easter Mazurka
C: Trad
R: Mazurka
L: 1/8
M: 3/4
K: G
Z: ABC transcription by Verge Roller
|: D2 | "G" G2 B2 G2 | "Bm" d4 B2 |  "C" c2 e2 c2 | "D" de dc BA |
"G" G2 B2 G2 | "Bm" d4 B2 | "C" c4 B2 | "D" A4 :|
|: B2 | "Am" c2 ec Ac | "G" B2 dB GB | "D" A2 cA FA | "G" GD GB dB |
"Am" c2 ec Ac | "G" B2 dB GB | "D" A2 cA FA | "G" G4 :|
r: 32
